X:4
T:Prince Georges Rigadoon THO1.004
M:6/8
L:1/8
Z:vmp. Peter Dunk 2012.from a transcription by Fynn Titford-Mock 2006
B:Thompson's Compleat Collection of 200 Favourite Country Dances Vol.I,1758
Q:3/8=100
K:Bb
f|b2d g2 c|f2 A B2 (c//d//e/)|d>cB A2 B|\
c2 F F2 (f//g//a/)|bfd gec|fdB A2 (g//a//b/)|
a>gf Tg3|f3-f2::f|g2 E -EGB|ega bag|g2 E -EGB|ega bfe|dcB Tc3|B3-B2:|

